packages/Snapp/src/LogInIcon/index.svg

<?xml version="1.0" encoding="UTF-8"?>
<svg width="24px" height="24px" viewBox="0 0 24 24" version="1.1" xmlns="http://www.w3.org/2000/svg" xmlns:xlink="http://www.w3.org/1999/xlink">
    <title>Icons/24/LogIn</title>
    <g id="Icons/24/LogIn" stroke="none" stroke-width="1" fill="none" fill-rule="evenodd">
        <rect id="Container" fill-opacity="0" fill="#D8D8D8" fill-rule="nonzero" x="0" y="0" width="24" height="24"></rect>
        <path d="M10,19 C10.5522847,19 11,19.4477153 11,20 C11,20.5522847 10.5522847,21 10,21 L6,21 C4.34314575,21 3,19.6568542 3,18 L3,6 C3,4.34314575 4.34314575,3 6,3 L10,3 C10.5522847,3 11,3.44771525 11,4 C11,4.55228475 10.5522847,5 10,5 L6,5 C5.44771525,5 5,5.44771525 5,6 L5,18 C5,18.5522847 5.44771525,19 6,19 L10,19 Z M11.4142136,11 L20,11 C20.5522847,11 21,11.4477153 21,12 C21,12.5522847 20.5522847,13 20,13 L11.4142136,13 L14.7071068,16.2928932 C15.0976311,16.6834175 15.0976311,17.3165825 14.7071068,17.7071068 C14.3165825,18.0976311 13.6834175,18.0976311 13.2928932,17.7071068 L8.29289322,12.7071068 C7.90236893,12.3165825 7.90236893,11.6834175 8.29289322,11.2928932 L13.2928932,6.29289322 C13.6834175,5.90236893 14.3165825,5.90236893 14.7071068,6.29289322 C15.0976311,6.68341751 15.0976311,7.31658249 14.7071068,7.70710678 L11.4142136,11 L11.4142136,11 Z" id="Shape" fill="#404040" fill-rule="nonzero"></path>
    </g>
</svg>

<svg viewBox="0 0 24 24" xmlns="http://www.w3.org/2000/svg" fill="currentColor" focusable="false">
  <path d="M10 19a1 1 0 010 2H6a3 3 0 01-3-3V6a3 3 0 013-3h4a1 1 0 010 2H6a1 1 0 00-1 1v12a1 1 0 001 1h4zm1.414-8H20a1 1 0 010 2h-8.586l3.293 3.293a1 1 0 01-1.414 1.414l-5-5a1 1 0 010-1.414l5-5a1 1 0 011.414 1.414L11.414 11z" fill="none"/>
</svg>
